common/src/main/resources/icons/plugins/resharper/Appkind/RemoteWebDevMin.svg

<svg xmlns="http://www.w3.org/2000/svg" width="16" height="16" fill="#80DEEA" data-big="true" viewBox="0 0 24 24"><path d="M16.36 14c.08-.66.14-1.32.14-2s-.06-1.34-.14-2h3.38c.16.64.26 1.31.26 2s-.1 1.36-.26 2m-5.15 5.56c.6-1.11 1.06-2.31 1.38-3.56h2.95a8.03 8.03 0 0 1-4.33 3.56M14.34 14H9.66c-.1-.66-.16-1.32-.16-2s.06-1.35.16-2h4.68c.09.65.16 1.32.16 2s-.07 1.34-.16 2M12 19.96c-.83-1.2-1.5-2.53-1.91-3.96h3.82c-.41 1.43-1.08 2.76-1.91 3.96M8 8H5.08A7.92 7.92 0 0 1 9.4 4.44C8.8 5.55 8.35 6.75 8 8m-2.92 8H8c.35 1.25.8 2.45 1.4 3.56A8 8 0 0 1 5.08 16m-.82-2C4.1 13.36 4 12.69 4 12s.1-1.36.26-2h3.38c-.08.66-.14 1.32-.14 2s.06 1.34.14 2M12 4.03c.83 1.2 1.5 2.54 1.91 3.97h-3.82c.41-1.43 1.08-2.77 1.91-3.97M18.92 8h-2.95a15.7 15.7 0 0 0-1.38-3.56c1.84.63 3.37 1.9 4.33 3.56M12 2C6.47 2 2 6.5 2 12a10 10 0 0 0 10 10 10 10 0 0 0 10-10A10 10 0 0 0 12 2"/></svg>

<!--
  - The MIT License (MIT)
  -
  - Copyright (c) 2015-2024 Elior "Mallowigi" Boukhobza
  -
  - Permission is hereby granted, free of charge, to any person obtaining a copy
  - of this software and associated documentation files (the "Software"), to deal
  - in the Software without restriction, including without limitation the rights
  - to use, copy, modify, merge, publish, distribute, sublicense, and/or sell
  - copies of the Software, and to permit persons to whom the Software is
  - furnished to do so, subject to the following conditions:
  -
  - The above copyright notice and this permission notice shall be included in all
  - copies or substantial portions of the Software.
  -
  - THE SOFTWARE IS PROVIDED "AS IS", WITHOUT WARRANTY OF ANY KIND, EXPRESS OR
  - IMPLIED, INCLUDING BUT NOT LIMITED TO THE WARRANTIES OF MERCHANTABILITY,
  - FITNESS FOR A PARTICULAR PURPOSE AND NONINFRINGEMENT. IN NO EVENT SHALL THE
  - AUTHORS OR COPYRIGHT HOLDERS BE LIABLE FOR ANY CLAIM, DAMAGES OR OTHER
  - LIABILITY, WHETHER IN AN ACTION OF CONTRACT, TORT OR OTHERWISE, ARISING FROM,
  - OUT OF OR IN CONNECTION WITH THE SOFTWARE OR THE USE OR OTHER DEALINGS IN THE
  - SOFTWARE.
  -->


<svg data-big="true" xmlns="http://www.w3.org/2000/svg" version="1.1" width="16px" height="16px" fill="#80DEEA"
     viewBox="0 0 24 24">
  <path
    d="M16.36,14C16.44,13.34 16.5,12.68 16.5,12C16.5,11.32 16.44,10.66 16.36,10H19.74C19.9,10.64 20,11.31 20,12C20,12.69 19.9,13.36 19.74,14M14.59,19.56C15.19,18.45 15.65,17.25 15.97,16H18.92C17.96,17.65 16.43,18.93 14.59,19.56M14.34,14H9.66C9.56,13.34 9.5,12.68 9.5,12C9.5,11.32 9.56,10.65 9.66,10H14.34C14.43,10.65 14.5,11.32 14.5,12C14.5,12.68 14.43,13.34 14.34,14M12,19.96C11.17,18.76 10.5,17.43 10.09,16H13.91C13.5,17.43 12.83,18.76 12,19.96M8,8H5.08C6.03,6.34 7.57,5.06 9.4,4.44C8.8,5.55 8.35,6.75 8,8M5.08,16H8C8.35,17.25 8.8,18.45 9.4,19.56C7.57,18.93 6.03,17.65 5.08,16M4.26,14C4.1,13.36 4,12.69 4,12C4,11.31 4.1,10.64 4.26,10H7.64C7.56,10.66 7.5,11.32 7.5,12C7.5,12.68 7.56,13.34 7.64,14M12,4.03C12.83,5.23 13.5,6.57 13.91,8H10.09C10.5,6.57 11.17,5.23 12,4.03M18.92,8H15.97C15.65,6.75 15.19,5.55 14.59,4.44C16.43,5.07 17.96,6.34 18.92,8M12,2C6.47,2 2,6.5 2,12A10,10 0 0,0 12,22A10,10 0 0,0 22,12A10,10 0 0,0 12,2Z"/>
</svg>
